X:1
T:Title
%%score { ( 1 3 ) | ( 2 4 5 ) }
L:1/8
Q:1/4=100
M:6/8
K:Eb
V:1 treble nm="Grand Piano"
V:3 treble 
V:2 bass 
V:4 bass 
V:5 bass 
V:1
 [B,EG]3 [EGB]3 | [EGB]3 [EGB]3 | [B,DB][B,DF]>[B,EG] [DFA]3 | [Ac][EGB]>[C_G=A] [B,=GB]3 | %4
w: Robert~Harkness *||||
 [B,EG]3 [EGB]3 | [EGB]3 B3 | d3 z3 | [DB]6 | [GB]3- [GB][Ge]>[Gc] | [AB]-[DA-B-]>[CA-B-] [B,AB]3 | %10
w: ||||||
 [AB]-[FA-B-]>[EA-B-] [AB]d>c | [GB]-[EG-B-]>[CG-B-] [B,GB]3 | G_G=G BcB | [Ge][Ae][Bd] c3 | %14
w: ||||
[M:13/16] edc[EB]3/2[DG]F[Q:1/4=97][Q:1/4=94][Q:1/4=91][Q:1/4=88][Q:1/4=84][Q:1/4=81][Q:1/4=78] | %15
w: |
[M:3/4] E6 |] %16
w: |
V:2
 G,_G,=G, B,C[K:treble]D | DC>G, B,3 | B,,B,,>B,, B,,3 | [E,B,]E,>E, E,3 | %4
 G,_G,=G, B,[K:treble]CD | DC>G, [B,EG]3 | .[F,B,F]3 z GF, | z3[K:treble] A3 | z3 B,3[K:bass] | %9
 B,,B,,>B,, B,,3 | B,[K:treble]D>C z A>A | E,E,>E, E,3 | %12
 [E,B,E][E,=A,E][E,B,E] [E,G,E][E,_A,E][E,G,E] | [E,B,][F,B,][K:treble][G,E] [A,EA]3 | %14
[M:13/16][K:bass] [A,CE][A,B,E][A,E][B,,G,]3/2[B,,B,][B,,A,B,] |[M:3/4] [E,G,B,]6 |] %16
V:3
 x6 | x6 | x6 | x6 | x6 | x6 | z BG .[=Ae]2 [EFc] | F3 z3 | .B,3 z3 | .B,3 z3 | .D3 D3 | .B,3 z3 | %12
 x6 | x6 |[M:13/16] x13/2 |[M:3/4] x6 |] %16
V:4
 x5[K:treble] x | x6 | x6 | x6 | x4[K:treble] x2 | x6 | z3 .[F,C]3 | B,6[K:treble] | %8
 z E>C z[K:bass] E,>E, | x6 | z3[K:treble] B,3 | x6 | x6 | x2[K:treble] x4 | %14
[M:13/16][K:bass] x13/2 |[M:3/4] x6 |] %16
V:5
 x5[K:treble] x | x6 | x6 | x6 | x4[K:treble] x2 | x6 | x6 | x3[K:treble] x3 | .E,6[K:bass] | x6 | %10
 x[K:treble] x5 | x6 | x6 | x2[K:treble] x4 |[M:13/16][K:bass] x13/2 |[M:3/4] x6 |] %16

